X: 145
T: No_79_Yonder_Lies_the_Spirit_Land.krn
N: Derived from No_79_Yonder_Lies_the_Spirit_Land.krn
%%abc-version 2.0
%%abcx-abcm2ps-target-version 5.9.1 (29 Sep 2008)
%%abc-creator hum2abc beta
%%abcx-conversion-date 2019/03/15 08:37:56
%%humdrum-veritas 1709751542
%%humdrum-veritas-data 3701646676
%%linebreak <none>
%%barnumbers 0
L: 1/4
M: 3/4
K: Db clef=bass
A, [I:setbarnb 1]| 
E/E/ D/D/D ||  
[M:2/4]E3/D/ ||  
[M:3/4]DA,D | 
E/E/ E/D/D ||  
[M:2/4]D3/B,/ | 
A,F, | 
F,A,/A,/ | 
A,2 | 
A,z | 
DE/E/ | 
DD/B,/ | 
A,F, | 
F,B,3//A,// | 
A,A,/A,/ | 
A,F, | 
F,A,/A,/ | 
A,2 | 
A,3/A,/ | 
A,2 :|]  



